X:26
T:Shave the Donkey
M:4/4
S:Bacon (RD)
A:Bampton
O:English
R:Reel
P:A(AB3)3A
K:G
P:A
d2 B2 dcBA | G2 g2 e2 g2 | d2 B2 dcBA | G2 B2 G4 :|
P:B
A3 c B2 d2 | A3 c  B2 d2 | A3 B c2 e2 | [1 dcBA B2 G2 :| [2 dcBA G4 |]
